!!!COM: Palestrina, Giovanni Perluigi da
!!!OPR: Missa Hodie Christus Natus Est
!!!OMD: Kyrie II
!!!OTL: First Section
**kern	**kern	**kern	**kern	**kern	**kern	**kern	**kern
*Ibass	*Itenor	*Itenor	*Icalto	*Ibass	*Icalto	*Icant	*Icant
!Bassus	!Tenor 2	!Tenor 1	!Altus	!Bassus	!Altus	!Cantus 2	!Cantus 1
*clefF4	*clefGv2	*clefGv2	*clefG2	*clefF4	*clefG2	*clefG2	*clefG2
*k[]	*k[]	*k[]	*k[]	*k[]	*k[]	*k[]	*k[]
*G:mix	*G:mix	*G:mix	*G:mix	*G:mix	*G:mix	*G:mix	*G:mix
*M4/2	*M4/2	*M4/2	*M4/2	*M4/2	*M4/2	*M4/2	*M4/2
=1	=1	=1	=1	=1	=1	=1	=1
0r	1.d	1r	0r	0r	0r	0r	0r
.	.	[1d	.	.	.	.	.
.	2G	.	.	.	.	.	.
=2	=2	=2	=2	=2	=2	=2	=2
1.G	2G	2d]	0r	0r	0r	0r	0r
.	2g	2G	.	.	.	.	.
.	4g	2G	.	.	.	.	.
.	4f	.	.	.	.	.	.
2C	4e	2g	.	.	.	.	.
.	4d	.	.	.	.	.	.
=3	=3	=3	=3	=3	=3	=3	=3
1C	1e	4g	1r	0r	0r	0r	0r
.	.	4f	.	.	.	.	.
.	.	4e	.	.	.	.	.
.	.	4d	.	.	.	.	.
2r	2.c	1e	[1g	.	.	.	.
2c	.	.	.	.	.	.	.
.	4d	.	.	.	.	.	.
=4	=4	=4	=4	=4	=4	=4	=4
4c	2e	1.c	2g]	0r	0r	0r	0r
4B	.	.	.	.	.	.	.
4A	2.e	.	2c	.	.	.	.
4G	.	.	.	.	.	.	.
1A	.	.	2c	.	.	.	.
.	4d	.	.	.	.	.	.
.	4c	2e	2cc	.	.	.	.
.	4B	.	.	.	.	.	.
=5	=5	=5	=5	=5	=5	=5	=5
1.F	1A	2.f	4cc	0r	0r	0r	0r
.	.	.	4b	.	.	.	.
.	.	.	4a	.	.	.	.
.	.	8e	4g	.	.	.	.
.	.	8d	.	.	.	.	.
.	2r	2c	2a	.	.	.	.
2D	[2a	2d	[2f	.	.	.	.
=6	=6	=6	=6	=6	=6	=6	=6
2.A	2a]	2.c	4f]	0r	0r	0r	0r
.	.	.	4e	.	.	.	.
.	2a	.	1e	.	.	.	.
4G	.	4B	.	.	.	.	.
1F	1a	1A	.	.	.	.	.
.	.	.	2d	.	.	.	.
=7	=7	=7	=7	=7	=7	=7	=7
2.E	2.g	2B	2.e	0r	0r	0r	0r
.	.	2.c	.	.	.	.	.
4D	4f	.	4f	.	.	.	.
1C	4e	.	2g	.	.	.	.
.	4d	4B	.	.	.	.	.
.	4c	4A	[2a	.	.	.	.
.	4B	4G	.	.	.	.	.
=8	=8	=8	=8	=8	=8	=8	=8
0D	2A	2F#	2a]	0r	0r	0r	1r
.	4B	2G	1g	.	.	.	.
.	4c	.	.	.	.	.	.
.	1d	1A	.	.	.	.	[1dd
.	.	.	2f#	.	.	.	.
=9	=9	=9	=9	=9	=9	=9	=9
0G	2.B	2.G	0g	0r	1r	1.dd	2dd]
.	.	.	.	.	.	.	2g
.	4c	4A	.	.	.	.	.
.	1d	1B	.	.	[1g	.	2g
.	.	.	.	.	.	2g	2gg
=10	=10	=10	=10	=10	=10	=10	=10
0r	0r	0r	0r	0r	2g]	2g	4gg
.	.	.	.	.	.	.	4ff
.	.	.	.	.	2c	2gg	4ee
.	.	.	.	.	.	.	4dd
.	.	.	.	.	2c	4gg	1ee
.	.	.	.	.	.	4ff	.
.	.	.	.	.	2cc	4ee	.
.	.	.	.	.	.	4dd	.
=11	=11	=11	=11	=11	=11	=11	=11
0r	0r	0r	0r	0r	4cc	1.ee	1.cc
.	.	.	.	.	4b	.	.
.	.	.	.	.	4a	.	.
.	.	.	.	.	4g	.	.
.	.	.	.	.	1a	.	.
.	.	.	.	.	.	2cc	2ee
=12	=12	=12	=12	=12	=12	=12	=12
0r	0r	0r	0r	0r	2f	2a	2ff
.	.	.	.	.	2d	2.dd	2ff
.	.	.	.	.	1a	.	2ee
.	.	.	.	.	.	4cc	.
.	.	.	.	.	.	[2cc	2cc
=13	=13	=13	=13	=13	=13	=13	=13
0r	0r	0r	0r	1.G	0g	2cc]	1dd
.	.	.	.	.	.	4b	.
.	.	.	.	.	.	4a	.
.	.	.	.	.	.	2b	2.gg
.	.	.	.	2C	.	2cc	.
.	.	.	.	.	.	.	4ff
=14	=14	=14	=14	=14	=14	=14	=14
0r	0r	0r	0r	2C	2r	2.gg	4ee
.	.	.	.	.	.	.	4dd
.	.	.	.	2c	1g	.	2ee
.	.	.	.	.	.	4ff	.
.	.	.	.	4c	.	4ee	[1cc
.	.	.	.	4B	.	4dd	.
.	.	.	.	4A	2c	[2ee	.
.	.	.	.	4G	.	.	.
=15	=15	=15	=15	=15	=15	=15	=15
0r	0r	0r	0r	1A	2c	4ee]	2cc]
.	.	.	.	.	.	4dd	.
.	.	.	.	.	2e	4cc	2a
.	.	.	.	.	.	4b	.
.	.	.	.	2F	1f	1a	2cc
.	.	.	.	2D	.	.	[2dd
=16	=16	=16	=16	=16	=16	=16	=16
0r	0r	0r	0r	2.E	1e	0g	4dd]
.	.	.	.	.	.	.	4cc
.	.	.	.	.	.	.	1cc
.	.	.	.	4F	.	.	.
.	.	.	.	1G	1d	.	.
.	.	.	.	.	.	.	2b
*-	*-	*-	*-	*-	*-	*-	*-
!!!CDT: 1525/^1526/-1594/2/2
!!!OCY: Italia
!!!AGN: Mass (Parody)
!!!AST: renaissance, vocal
!!!ASW: Motet 1575 (Palestrina)
!!!PWK: Masses, Book 8vce
!!!RNB: Cadence finals: C,D
!!!YOR: Le Opere Complete, v. 30, p. 59
!!!YOO: Rome, Italy: Fratelli Scalera
!!!END: 1992//
!!!EED: John Miller
!!!YEC: Copyright 2000, John Miller
!!!YEN: United States of America
!!!YEM: Rights to all derivative electronic formats reserved.
!!!YEM: Refer to licensing agreement for further details.
!!!YEM: This file must be accompanied by the licensing agreement.
!!!YEM: A copy of the licensing agreement may be found at http://www.music-cog.ohio-state.edu/HumdrumDatabases/Palestrina/license.txt
!!!EMD: converted to Humdrum by Bret Aarden
